X: 38614
T: Stoney Steps, The
R: reel
M: 4/4
K: Dmajor
B3G AEGE|DGBG AGED|BABA ~G3B|dBAd BG~G2:|
~g3f ~g2dg|egdg egd2|~g3f gedg|1 ea~a2 afef:|2 e~a2 aged||

